dist/img/localisation.svg

<svg width="58" height="58" viewBox="0 0 58 58" version="1.1" xmlns="http://www.w3.org/2000/svg" xmlns:xlink="http://www.w3.org/1999/xlink">
<title>localisation</title>
<desc>Created using Figma</desc>
<g id="Canvas" transform="translate(1218 -4840)">
<g id="localisation">
<g id="Round">
<mask id="mask0_outline_ins">
<use xlink:href="#path0_fill" fill="white" transform="translate(-1218 4840)"/>
</mask>
<g mask="url(#mask0_outline_ins)">
<use xlink:href="#path1_stroke_2x" transform="translate(-1218 4840)" fill="#FFFFFF"/>
</g>
</g>
<g id="placeholder">
<g id="Group">
<g id="Vector">
<use xlink:href="#path2_fill" transform="translate(-1192.56 4861.14)" fill="#FFFFFF"/>
</g>
<g id="Vector">
<use xlink:href="#path3_fill" transform="translate(-1199 4855)" fill="#FFFFFF"/>
</g>
</g>
</g>
</g>
</g>
<defs>
<path id="path0_fill" d="M 0 29C 0 12.9837 12.9837 0 29 0C 45.0163 0 58 12.9837 58 29C 58 45.0163 45.0163 58 29 58C 12.9837 58 0 45.0163 0 29Z"/>
<path id="path1_stroke_2x" d="M 29 -1C 12.4315 -1 -1 12.4315 -1 29L 1 29C 1 13.536 13.536 1 29 1L 29 -1ZM 29 1C 44.464 1 57 13.536 57 29L 59 29C 59 12.4315 45.5685 -1 29 -1L 29 1ZM 57 29C 57 44.464 44.464 57 29 57L 29 59C 45.5685 59 59 45.5685 59 29L 57 29ZM 29 57C 13.536 57 1 44.464 1 29L -1 29C -1 45.5685 12.4315 59 29 59L 29 57Z"/>
<path id="path2_fill" d="M 3.65049 0C 1.63803 0 -4.13787e-07 1.60615 -4.13787e-07 3.57945C -4.13787e-07 5.55275 1.63803 7.1589 3.65049 7.1589C 5.66295 7.1589 7.30098 5.55275 7.30098 3.57945C 7.30098 1.60615 5.66295 0 3.65049 0ZM 3.65049 6.1362C 2.21272 6.1362 1.043 4.98924 1.043 3.57945C 1.043 2.16966 2.21272 1.0227 3.65049 1.0227C 5.08826 1.0227 6.25798 2.16966 6.25798 3.57945C 6.25798 4.98924 5.08826 6.1362 3.65049 6.1362Z"/>
<path id="path3_fill" d="M 17.0725 2.87225C 15.1837 1.02014 12.6721 0 10.001 0C 7.32937 0 4.81836 1.02014 2.92949 2.87225C -0.566114 6.29932 -1.00052 12.7474 1.98871 16.6542L 10.001 28L 18.0013 16.67C 21.0025 12.7474 20.5681 6.29932 17.0725 2.87225ZM 17.1555 16.0722L 10.001 26.2031L 2.8351 16.0564C 0.123829 12.5117 0.512345 6.68846 3.66741 3.5953C 5.35915 1.93648 7.60838 1.0227 10.001 1.0227C 12.3936 1.0227 14.6429 1.93648 16.3351 3.5953C 19.4902 6.68846 19.8787 12.5117 17.1555 16.0722Z"/>
</defs>
</svg>

<svg width="58" height="58" viewBox="0 0 58 58" xmlns="http://www.w3.org/2000/svg" xmlns:xlink="http://www.w3.org/1999/xlink"><title>localisation</title><desc>Created using Figma</desc><g transform="translate(1218 -4840)"><mask id="b"><use xlink:href="#a" fill="#fff" transform="translate(-1218 4840)"/></mask><g mask="url(#b)"><use xlink:href="#c" transform="translate(-1218 4840)" fill="#FFF"/></g></g><use xlink:href="#d" transform="translate(25.44 21.14)" fill="#FFF"/><use xlink:href="#e" transform="translate(19 15)" fill="#FFF"/><defs><path id="a" d="M0 29C0 12.984 12.984 0 29 0s29 12.984 29 29-12.984 29-29 29S0 45.016 0 29z"/><path id="c" d="M29-1C12.431-1-1 12.431-1 29h2C1 13.536 13.536 1 29 1v-2zm0 2c15.464 0 28 12.536 28 28h2C59 12.431 45.569-1 29-1v2zm28 28c0 15.464-12.536 28-28 28v2c16.569 0 30-13.431 30-30h-2zM29 57C13.536 57 1 44.464 1 29h-2c0 16.569 13.431 30 30 30v-2z"/><path id="d" d="M3.65 0C1.638 0 0 1.606 0 3.58c0 1.973 1.638 3.579 3.65 3.579 2.013 0 3.651-1.606 3.651-3.58C7.301 1.606 5.663 0 3.651 0zm0 6.136c-1.437 0-2.607-1.147-2.607-2.557s1.17-2.556 2.607-2.556c1.438 0 2.608 1.147 2.608 2.556 0 1.41-1.17 2.557-2.608 2.557z"/><path id="e" d="M17.073 2.872A10.036 10.036 0 0 0 10 0C7.329 0 4.818 1.02 2.929 2.872-.566 6.3-1 12.747 1.99 16.654L10 28l8-11.33c3.002-3.923 2.567-10.37-.928-13.798zm.082 13.2l-7.154 10.131-7.166-10.147C.124 12.512.512 6.688 3.667 3.596a8.989 8.989 0 0 1 6.334-2.573 8.99 8.99 0 0 1 6.334 2.572c3.155 3.093 3.544 8.917.82 12.477z"/></defs></svg>
